X: 538
%
U:~=!turn!
T: The Oyster Wives' Rant
C:
O:Scotland
B:Keith Norman MacDonald : "The Skye collection of the best reels & strathspeys extant" : 1887
Z:Ralph Palmer
R:Reel
M:C|
L:1/8
K:A minor
B | e2 {/f}ed eAAB | {/^c}de{/c}dB {/^F}GABd | e2 {/^f}ed e^f{/f}ge | {/^c}dB{/^f}gB A/A/A A ::
B | {/^f}edef {ef}g2 (^fe) | {/^c}de{/c}dB {/c}de{/c}dB | {/^f}edef {ef}g>age | {/^c}dB{/^f}gc A/A/A {cB}A :|


